packages/tokens/icons/cartAdd/size32Px.svg

<svg viewBox="0 0 32 32" fill="none" xmlns="http://www.w3.org/2000/svg" width="1em" height="1em"><circle cx="11" cy="28" r="1.5" stroke="currentColor"/><circle cx="24" cy="28" r="1.5" stroke="currentColor"/><path d="M7.5 10.5L28.2472 10.5C28.8889 10.5 29.3646 11.0959 29.2224 11.7216L27.3538 19.9432C27.1469 20.8538 26.3373 21.5 25.4035 21.5L10 21.5C9.17157 21.5 8.5 22.1716 8.5 23V23C8.5 23.8284 9.17157 24.5 10 24.5L26.5 24.5" stroke="currentColor" stroke-linecap="round"/><path d="M4 8H6.5L9.5 21.5" stroke="currentColor" stroke-linecap="round" stroke-linejoin="round"/><path d="M15 5L20 5M17.5 7.5V2.5" stroke="currentColor" stroke-linecap="round"/></svg>

<svg xmlns="http://www.w3.org/2000/svg" fill="none" viewBox="0 0 32 32" width="1em" height="1em"><circle cx="11" cy="28" r="1.5" stroke="currentColor"/><circle cx="24" cy="28" r="1.5" stroke="currentColor"/><path stroke="currentColor" stroke-linecap="round" d="M7.5 10.5h20.747a1 1 0 0 1 .975 1.222l-1.868 8.221a2 2 0 0 1-1.95 1.557H10A1.5 1.5 0 0 0 8.5 23v0a1.5 1.5 0 0 0 1.5 1.5h16.5"/><path stroke="currentColor" stroke-linecap="round" stroke-linejoin="round" d="M4 8h2.5l3 13.5"/><path stroke="currentColor" stroke-linecap="round" d="M15 5h5m-2.5 2.5v-5"/></svg>
